X: 11
T: The Congress
R: reel
M: 4/4
L: 1/8
K: Ador
|:eAAG A2(3Bcd|e2af gedB|eA~A2 EAcA|BG~G2 BGBd|
eAAG A2(3Bcd|e2af gedB|c3d eged|(3cBA BG ABcd:|
|:eaag a3g|ea~a2 gedg|egdg egdg|eaaf gedg|
eaag a3g|ea~a2 gedB|c3d eged|(3cBA BG ABcd:|


Tune 208	Setting 27943

